X: 36173
T: Scotsman Over The Border, The
R: jig
M: 6/8
K: Dmajor
D3 F2 A|de/f/e/ d2 A|BdB B2 b|baf e2 d|
D3 F2 A|de/f/e/ d2 A|BdB AFA|B/c/dF E2 D||
dfa afa|baf e2 d|dfa b>c'd'|d>ef e2 d|
dfa afa|baf e2 d|dBB AFA|B/c/dF E2 D||

